X:53
T:Dinah
M:4/4
K:A
(3efg|"A"a2a2 abaf|e2c2 c2 (3efg|"A"a2ab a2e2|"D"f3=gf2 (3efg|
"A"a2a2 abaf|e2c2 c2 A2|"D"BABA "E7"cAB2|"A"A3BA2:|
|:cB|"A"ABcB ABcB|e3fe2cB|"A"ABcB ABcB|"F#m"A2F2F2A2|
"A"ABcB ABcB|e3fe2cB|"E7"BABA cA B2|"A"A3BA2:|
